_site/images/link-marker.svg

<svg enable-background="new 2 3.5 18 18" height="18" viewBox="2 3.5 18 18" width="18" xmlns="http://www.w3.org/2000/svg"><path d="m11 3.625c-4.901 0-8.875 3.974-8.875 8.875s3.973 8.875 8.875 8.875 8.875-3.974 8.875-8.875-3.974-8.875-8.875-8.875zm5.337 10.855h-3.357v3.026h-3.96v-3.026h-3.357v-3.96h3.357v-3.027h3.961v3.026h3.356z" fill="#f2ede7"/></svg>

<?xml version="1.0" encoding="utf-8"?>
<!-- Generator: Adobe Illustrator 16.0.4, SVG Export Plug-In . SVG Version: 6.00 Build 0)  -->
<!DOCTYPE svg PUBLIC "-//W3C//DTD SVG 1.1//EN" "http://www.w3.org/Graphics/SVG/1.1/DTD/svg11.dtd">
<svg version="1.1" id="Layer_1" xmlns="http://www.w3.org/2000/svg" xmlns:xlink="http://www.w3.org/1999/xlink" x="0px" y="0px"
	 width="18px" height="18px" viewBox="2 3.5 18 18" enable-background="new 2 3.5 18 18" xml:space="preserve">
<path fill="#F2EDE7" d="M11,3.625c-4.901,0-8.875,3.974-8.875,8.875c0,4.901,3.973,8.875,8.875,8.875
	c4.902,0,8.875-3.974,8.875-8.875C19.875,7.599,15.901,3.625,11,3.625z M16.337,14.48H12.98v3.026H9.02V14.48H5.663V10.52H9.02
	V7.493h3.961v3.026h3.356V14.48z"/>
</svg>
